backend/static_extras/images/hero-partner.svg

<svg fill="none" height="474" viewBox="0 0 648 474" width="648" xmlns="http://www.w3.org/2000/svg" xmlns:xlink="http://www.w3.org/1999/xlink"><mask id="a" height="184" maskUnits="userSpaceOnUse" width="327" x="139" y="151"><path d="m465.306 151.692-325.475 90.979 71.392 17.947 21.573 73.838 48.273-33.36 46.543 28.324z" fill="#fff"/></mask><path clip-rule="evenodd" d="m112.58 83.5324c5.478-30.9757 32.562-54.5324 65.109-54.5324 30.415 0 56.056 20.5703 63.75 48.5587 1.494-.1888 3.005-.2919 4.551-.2919 19.888 0 36.049 16.1576 36.049 36.0412 0 2.867-.344 5.666-.979 8.344 27.032 5.924 47.281 29.997 47.281 58.775 0 33.207-26.964 60.167-60.181 60.167-15.714 0-30.037-6.044-40.771-15.917-4.62 28.623-29.488 50.515-59.407 50.515-18.616 0-35.275-8.482-46.318-21.772-7.591 6.199-17.277 9.907-27.8215 9.907-24.3012 0-44.0361-19.729-44.0361-44.027 0-2.06.1374-4.086.4122-6.078-19.4241-13.067-32.2186-35.234-32.2186-60.37 0-40.127 32.5795-72.6994 72.6974-72.6994 7.6254 0 14.9936 1.1847 21.8976 3.3654z" fill="#ecfeff" fill-rule="evenodd"/><path clip-rule="evenodd" d="m362.239 254.306c5.479-30.975 32.562-54.532 65.109-54.532 30.416 0 56.056 20.57 63.75 48.559 1.494-.189 3.006-.292 4.552-.292 19.887 0 36.048 16.157 36.048 36.041 0 2.867-.343 5.666-.979 8.344 27.032 5.924 47.281 29.997 47.281 58.775 0 33.207-26.963 60.167-60.18 60.167-15.715 0-30.038-6.044-40.772-15.917-4.62 28.623-29.487 50.515-59.406 50.515-18.617 0-35.276-8.482-46.318-21.772-7.591 6.199-17.277 9.907-27.822 9.907-24.301 0-44.036-19.729-44.036-44.027 0-2.06.137-4.086.412-6.078-19.424-13.067-32.219-35.234-32.219-60.37 0-40.127 32.58-72.699 72.698-72.699 7.625 0 14.993 1.184 21.897 3.365z" fill="#ecfeff" fill-rule="evenodd"/><path d="m344.443 114.091 17.994 2.648 76.072 134.962-76.072 134.963-19.238 2.83 77.839-137.793z" fill="#100f0d"/><path d="m113.49 251.697 77.839 137.74-19.239-2.777-76.0714-134.963 76.0714-134.962 17.881-2.534z" fill="#100f0d"/><g mask="url(#a)"><path d="m232.796 334.456 49.934-34.507-27.82-14.77z" fill="#231f20"/><path d="m211.223 260.618 254.083-108.926-325.475 90.979z" fill="#f9d00b"/><path d="m232.796 334.456 22.114-49.277 210.396-133.487-254.083 108.926z" fill="#fff"/><path d="m254.91 285.179 72.702 44.241 137.694-177.728z" fill="#f9d00b"/></g><g stroke="#231f20" stroke-miterlimit="10" stroke-width="4.85216"><path d="m465.306 151.692-325.475 90.979 71.392 17.947 21.573 73.838 48.273-33.36 46.543 28.324z"/><path d="m281.069 301.096-27.372-13.213"/></g></svg>

<svg width="648" height="474" viewBox="0 0 648 474" fill="none" xmlns="http://www.w3.org/2000/svg">
<path fill-rule="evenodd" clip-rule="evenodd" d="M112.58 83.5324C118.058 52.5567 145.142 29 177.689 29C208.104 29 233.745 49.5703 241.439 77.5587C242.933 77.3699 244.444 77.2668 245.99 77.2668C265.878 77.2668 282.039 93.4244 282.039 113.308C282.039 116.175 281.695 118.974 281.06 121.652C308.092 127.576 328.341 151.649 328.341 180.427C328.341 213.634 301.377 240.594 268.16 240.594C252.446 240.594 238.123 234.55 227.389 224.677C222.769 253.3 197.901 275.192 167.982 275.192C149.366 275.192 132.707 266.71 121.664 253.42C114.073 259.619 104.387 263.327 93.8425 263.327C69.5413 263.327 49.8064 243.598 49.8064 219.3C49.8064 217.24 49.9438 215.214 50.2186 213.222C30.7945 200.155 18 177.988 18 152.852C18 112.725 50.5795 80.1526 90.6974 80.1526C98.3228 80.1526 105.691 81.3373 112.595 83.518L112.58 83.5324Z" fill="#ECFEFF"/>
<path fill-rule="evenodd" clip-rule="evenodd" d="M362.239 254.306C367.718 223.331 394.801 199.774 427.348 199.774C457.764 199.774 483.404 220.344 491.098 248.333C492.592 248.144 494.104 248.041 495.65 248.041C515.537 248.041 531.698 264.198 531.698 284.082C531.698 286.949 531.355 289.748 530.719 292.426C557.751 298.35 578 322.423 578 351.201C578 384.408 551.037 411.368 517.82 411.368C502.105 411.368 487.782 405.324 477.048 395.451C472.428 424.074 447.561 445.966 417.642 445.966C399.025 445.966 382.366 437.484 371.324 424.194C363.733 430.393 354.047 434.101 343.502 434.101C319.201 434.101 299.466 414.372 299.466 390.074C299.466 388.014 299.603 385.988 299.878 383.996C280.454 370.929 267.659 348.762 267.659 323.626C267.659 283.499 300.239 250.927 340.357 250.927C347.982 250.927 355.35 252.111 362.254 254.292L362.239 254.306Z" fill="#ECFEFF"/>
<path d="M344.443 114.091L362.437 116.739L438.509 251.701L362.437 386.664L343.199 389.494L421.038 251.701L344.443 114.091Z" fill="#100F0D"/>
<path d="M113.49 251.697L191.329 389.437L172.09 386.66L96.0186 251.697L172.09 116.735L189.971 114.201L113.49 251.697Z" fill="#100F0D"/>
<mask id="mask0_1843_5988" style="mask-type:luminance" maskUnits="userSpaceOnUse" x="139" y="151" width="327" height="184">
<path d="M465.306 151.692L139.831 242.671L211.223 260.618L232.796 334.456L281.069 301.096L327.612 329.42L465.306 151.692Z" fill="white"/>
</mask>
<g mask="url(#mask0_1843_5988)">
<path d="M232.796 334.456L282.73 299.949L254.91 285.179L232.796 334.456Z" fill="#231F20"/>
<path d="M211.223 260.618L465.306 151.692L139.831 242.671L211.223 260.618Z" fill="#F9D00B"/>
<path d="M232.796 334.456L254.91 285.179L465.306 151.692L211.223 260.618L232.796 334.456Z" fill="white"/>
<path d="M254.91 285.179L327.612 329.42L465.306 151.692L254.91 285.179Z" fill="#F9D00B"/>
</g>
<path d="M465.306 151.692L139.831 242.671L211.223 260.618L232.796 334.456L281.069 301.096L327.612 329.42L465.306 151.692Z" stroke="#231F20" stroke-width="4.85216" stroke-miterlimit="10"/>
<path d="M281.069 301.096L253.697 287.883" stroke="#231F20" stroke-width="4.85216" stroke-miterlimit="10"/>
</svg>
